!!!COM: Bach, Johann Sebastian
!!!OTL@@DE: 358. Meine Seel' erhebt den Herren
!!!OTL@EN: My soul exalts the Lord
!!!SCA: BWV 10.7
**kern	**kern	**kern	**kern
*staff2	*staff2	*staff1	*staff1
*Iorgan	*Iorgan	*Iorgan	*Iorgan
!bass	!tenor	!alto	!sprno
*clefF4	*clefF4	*clefG2	*clefG2
*k[b-e-]	*k[b-e-]	*k[b-e-]	*k[b-e-]
*met(C)	*met(C)	*met(C)	*met(C)
*M4/4	*M4/4	*M4/4	*M4/4
*MM110	*MM110	*MM110	*MM110
=1-	=1-	=1-	=1-
2G\	2B-/	2g\	2dd/
2A\	2c/	2f\	2ff/
=2	=2	=2	=2
4B-\	4d/	4f\	4dd/
4A\	4c/	4f#\	4dd/
4G\	4B-/	4g\	4dd/
4F#\	4A/	4a\	4dd/
=3	=3	=3	=3
4G\	4B-/	4g\	2ee-/
4A\	2c/	2f\	.
4B-\	.	.	2dd/
4G\	4B-/	4g\	.
=4	=4	=4	=4
4E-\	2B-/	2g\	2cc/
4C\	.	.	.
2F\	2A/	2f\	2cc/
=5	=5	=5	=5
1BB-;	1d;	1f;	1b-;
=6	=6	=6	=6
2B-\	1B-	1f	2dd/
2D\	.	.	2ff/
=7	=7	=7	=7
4F\	4A/	4f\	4cc/
4A\	4c/	4f\	4cc/
4c\	4G/	4e-\	4cc/
4E-\	4c/	4g\	4g/
=8	=8	=8	=8
4D\	2.d/	2g\	2b-/
4C\	.	.	.
2D\	.	2f#\	2a/
.	4c/	.	.
=9	=9	=9	=9
1GG;	1B-;	1d;	1g;
=10	=10	=10	=10
2G\	2B-/	2g\	2dd/
2F\	2c/	2a\	2ff/
=11	=11	=11	=11
4d/	4B-\	2.f\	4dd/
4c/	4c\	.	4dd/
4B-/	2d\	.	4dd/
4A/	.	4f#\	4dd/
=12	=12	=12	=12
!!linebreak: 2
4d\	4B-/	4g\	2ee-/
4c\	4c/	4a\	.
4B-\	4F/	[2b-\	2dd'/
4D\	4f/	.	.
=13	=13	=13	=13
4E-\	2g/	4b-\]	2cc/
4C\	.	4b-\	.
2F\	4f/	4b-\	2cc/
.	4c/	4a\	.
=14	=14	=14	=14
1BB-;	1d;	1f;	1b-;
=15	=15	=15	=15
4BB-\	2r	1r	2dd/
4C\	.	.	.
4D\	4F/	.	2ff/
4E-\	4G/	.	.
=16	=16	=16	=16
2.F\	4A/	4f\	4cc/
.	4B-/	4g\	4cc/
.	[2c/	4a\	4cc/
4G\	.	4b-\	4cc/
=17	=17	=17	=17
4A\	4c/]	2cc\	2cc/
4B-\	4d/	.	.
2c\	4en/	2c\	4g/
.	4f#/	.	4a/
=18	=18	=18	=18
4BB-\	2g/	2d\	2b-/
4C\	.	.	.
4D\	4fn/	4d\	2a/
4E-\	4e-/	4c\	.
=19	=19	=19	=19
2F\	4d/	4Bn\	[1g
.	4Bn/	4d\	.
4E-\	4c/	4g\	.
4D\	[4d/	4f\	.
=20	=20	=20	=20
4C\	4d/]	[1e_	[1g
4D\	4G/	.	.
4E-\	[2c/	.	.
4F\	.	.	.
=21	=21	=21	=21
1G	2c/]	2e-\]	1g]
.	4Bn/	4d\	.
.	4A/	4c\	.
=22	=22	=22	=22
1GG;	1Bn;	1d;	1g;
==	==	==	==
*-	*-	*-	*-
!!!ENC: Craig Stuart Sapp
!!!END: 2004/12/06/
!!chor2scor: -l 2 -s 0.6 -o %b.pmx
